app/assets/images/icons/active/shopping--line.svg

<?xml version="1.0" encoding="UTF-8" standalone="no"?>
<svg width="32px" height="232px" viewBox="0 0 32 232" version="1.1" xmlns="http://www.w3.org/2000/svg" xmlns:xlink="http://www.w3.org/1999/xlink" xmlns:sketch="http://www.bohemiancoding.com/sketch/ns">
    <title>shopping--line</title>
    <description>Created with Sketch (http://www.bohemiancoding.com/sketch)</description>
    <defs></defs>
    <g id="Points-of-interest" stroke="none" stroke-width="1" fill="none" fill-rule="evenodd" sketch:type="MSPage">
        <path d="M24.5048333,149.8772 L7.09,149.8772 C6.53816667,149.8772 6.01475,149.657867 5.61508333,149.256533 C5.21816667,148.854267 5,148.318533 5,147.7436 L6.07983333,129.281333 L9.00858333,129.2664 C9.44033333,126.741733 11.2305833,123 15.7974167,123 C20.3954167,123 22.259,126.752933 22.7329167,129.272 L25.4370833,129.261733 L25.6130833,131.323467 L26.5975833,147.6932 C26.5994167,148.3148 26.3803333,148.8524 25.9815833,149.254667 C25.5929167,149.654133 25.06675,149.8772 24.5048333,149.8772 L24.5048333,149.8772 L24.5048333,149.8772 L24.5048333,149.8772 Z M7.62075,130.936133 L6.6335,147.793067 C6.63533333,147.8332 6.65641667,147.9648 6.76458333,148.075867 C6.826,148.137467 6.93691667,148.212133 7.09,148.212133 L24.5048333,148.212133 C24.6276667,148.212133 24.7413333,148.165467 24.8275,148.0796 C24.9200833,147.985333 24.965,147.871467 24.965,147.7436 L23.9401667,130.930533 L21.2754167,130.941733 L21.2103333,130.180133 C21.1901667,129.956133 20.65575,124.664133 15.7974167,124.664133 C10.99775,124.664133 10.5614167,129.937467 10.5430833,130.1624 L10.489,130.938933 L9.06633333,130.9296 L7.62075,130.936133 L7.62075,130.936133 L7.62075,130.936133 L7.62075,130.936133 Z M20.49075,145.582 L10.775,145.582 C10.3716667,145.582 9.99033333,145.423333 9.69975,145.134 C9.40366667,144.830667 9.24325,144.440533 9.24325,144.026133 L9.86475,133.397333 L21.3395833,133.3376 L21.4679167,134.828133 L22.017,143.975733 C22.02525,144.432133 21.8639167,144.827867 21.56875,145.1284 C21.291,145.4168 20.9078333,145.582 20.49075,145.582 L20.49075,145.582 L20.49075,145.582 L20.49075,145.582 Z M11.4056667,135.054933 L10.885,143.942133 L20.378,143.917867 L19.8445,135.011067 L11.4056667,135.054933 L11.4056667,135.054933 L11.4056667,135.054933 L11.4056667,135.054933 Z M19.0726667,130.9632 L12.72475,130.9632 L12.7898333,130.290267 C12.8970833,129.1516 13.6716667,127.0012 15.824,127.0012 C17.9488333,127.0012 18.81325,129.135733 18.97275,130.2632 L19.0726667,130.9632 L19.0726667,130.9632 L19.0726667,130.9632 L19.0726667,130.9632 Z M14.13,129.735867 L17.5940833,129.735867 C17.3575833,129.088133 16.8488333,128.228533 15.824,128.228533 C14.7863333,128.228533 14.328,129.094667 14.13,129.735867 L14.13,129.735867 Z M14.13,129.735867" id="shopping-line--lp-blue" fill="#206FAC" sketch:type="MSShapeGroup"></path>
        <path d="M24.5048333,109.8772 L7.09,109.8772 C6.53816667,109.8772 6.01475,109.657867 5.61508333,109.256533 C5.21816667,108.854267 5,108.318533 5,107.7436 L6.07983333,89.2813333 L9.00858333,89.2664 C9.44033333,86.7417333 11.2305833,83 15.7974167,83 C20.3954167,83 22.259,86.7529333 22.7329167,89.272 L25.4370833,89.2617333 L25.6130833,91.3234667 L26.5975833,107.6932 C26.5994167,108.3148 26.3803333,108.8524 25.9815833,109.254667 C25.5929167,109.654133 25.06675,109.8772 24.5048333,109.8772 L24.5048333,109.8772 L24.5048333,109.8772 L24.5048333,109.8772 Z M7.62075,90.9361333 L6.6335,107.793067 C6.63533333,107.8332 6.65641667,107.9648 6.76458333,108.075867 C6.826,108.137467 6.93691667,108.212133 7.09,108.212133 L24.5048333,108.212133 C24.6276667,108.212133 24.7413333,108.165467 24.8275,108.0796 C24.9200833,107.985333 24.965,107.871467 24.965,107.7436 L23.9401667,90.9305333 L21.2754167,90.9417333 L21.2103333,90.1801333 C21.1901667,89.9561333 20.65575,84.6641333 15.7974167,84.6641333 C10.99775,84.6641333 10.5614167,89.9374667 10.5430833,90.1624 L10.489,90.9389333 L9.06633333,90.9296 L7.62075,90.9361333 L7.62075,90.9361333 L7.62075,90.9361333 L7.62075,90.9361333 Z M20.49075,105.582 L10.775,105.582 C10.3716667,105.582 9.99033333,105.423333 9.69975,105.134 C9.40366667,104.830667 9.24325,104.440533 9.24325,104.026133 L9.86475,93.3973333 L21.3395833,93.3376 L21.4679167,94.8281333 L22.017,103.975733 C22.02525,104.432133 21.8639167,104.827867 21.56875,105.1284 C21.291,105.4168 20.9078333,105.582 20.49075,105.582 L20.49075,105.582 L20.49075,105.582 L20.49075,105.582 Z M11.4056667,95.0549333 L10.885,103.942133 L20.378,103.917867 L19.8445,95.0110667 L11.4056667,95.0549333 L11.4056667,95.0549333 L11.4056667,95.0549333 L11.4056667,95.0549333 Z M19.0726667,90.9632 L12.72475,90.9632 L12.7898333,90.2902667 C12.8970833,89.1516 13.6716667,87.0012 15.824,87.0012 C17.9488333,87.0012 18.81325,89.1357333 18.97275,90.2632 L19.0726667,90.9632 L19.0726667,90.9632 L19.0726667,90.9632 L19.0726667,90.9632 Z M14.13,89.7358667 L17.5940833,89.7358667 C17.3575833,89.0881333 16.8488333,88.2285333 15.824,88.2285333 C14.7863333,88.2285333 14.328,89.0946667 14.13,89.7358667 L14.13,89.7358667 Z M14.13,89.7358667" id="shopping-line--white" fill="#FFFFFF" sketch:type="MSShapeGroup"></path>
        <path d="M24.5048333,69.8772 L7.09,69.8772 C6.53816667,69.8772 6.01475,69.6578667 5.61508333,69.2565333 C5.21816667,68.8542667 5,68.3185333 5,67.7436 L6.07983333,49.2813333 L9.00858333,49.2664 C9.44033333,46.7417333 11.2305833,43 15.7974167,43 C20.3954167,43 22.259,46.7529333 22.7329167,49.272 L25.4370833,49.2617333 L25.6130833,51.3234667 L26.5975833,67.6932 C26.5994167,68.3148 26.3803333,68.8524 25.9815833,69.2546667 C25.5929167,69.6541333 25.06675,69.8772 24.5048333,69.8772 L24.5048333,69.8772 L24.5048333,69.8772 L24.5048333,69.8772 Z M7.62075,50.9361333 L6.6335,67.7930667 C6.63533333,67.8332 6.65641667,67.9648 6.76458333,68.0758667 C6.826,68.1374667 6.93691667,68.2121333 7.09,68.2121333 L24.5048333,68.2121333 C24.6276667,68.2121333 24.7413333,68.1654667 24.8275,68.0796 C24.9200833,67.9853333 24.965,67.8714667 24.965,67.7436 L23.9401667,50.9305333 L21.2754167,50.9417333 L21.2103333,50.1801333 C21.1901667,49.9561333 20.65575,44.6641333 15.7974167,44.6641333 C10.99775,44.6641333 10.5614167,49.9374667 10.5430833,50.1624 L10.489,50.9389333 L9.06633333,50.9296 L7.62075,50.9361333 L7.62075,50.9361333 L7.62075,50.9361333 L7.62075,50.9361333 Z M20.49075,65.582 L10.775,65.582 C10.3716667,65.582 9.99033333,65.4233333 9.69975,65.134 C9.40366667,64.8306667 9.24325,64.4405333 9.24325,64.0261333 L9.86475,53.3973333 L21.3395833,53.3376 L21.4679167,54.8281333 L22.017,63.9757333 C22.02525,64.4321333 21.8639167,64.8278667 21.56875,65.1284 C21.291,65.4168 20.9078333,65.582 20.49075,65.582 L20.49075,65.582 L20.49075,65.582 L20.49075,65.582 Z M11.4056667,55.0549333 L10.885,63.9421333 L20.378,63.9178667 L19.8445,55.0110667 L11.4056667,55.0549333 L11.4056667,55.0549333 L11.4056667,55.0549333 L11.4056667,55.0549333 Z M19.0726667,50.9632 L12.72475,50.9632 L12.7898333,50.2902667 C12.8970833,49.1516 13.6716667,47.0012 15.824,47.0012 C17.9488333,47.0012 18.81325,49.1357333 18.97275,50.2632 L19.0726667,50.9632 L19.0726667,50.9632 L19.0726667,50.9632 L19.0726667,50.9632 Z M14.13,49.7358667 L17.5940833,49.7358667 C17.3575833,49.0881333 16.8488333,48.2285333 15.824,48.2285333 C14.7863333,48.2285333 14.328,49.0946667 14.13,49.7358667 L14.13,49.7358667 Z M14.13,49.7358667" id="shopping-line--body-grey" fill="#67747C" sketch:type="MSShapeGroup"></path>
        <path d="M24.5048333,29.8772 L7.09,29.8772 C6.53816667,29.8772 6.01475,29.6578667 5.61508333,29.2565333 C5.21816667,28.8542667 5,28.3185333 5,27.7436 L6.07983333,9.28133333 L9.00858333,9.2664 C9.44033333,6.74173333 11.2305833,3 15.7974167,3 C20.3954167,3 22.259,6.75293333 22.7329167,9.272 L25.4370833,9.26173333 L25.6130833,11.3234667 L26.5975833,27.6932 C26.5994167,28.3148 26.3803333,28.8524 25.9815833,29.2546667 C25.5929167,29.6541333 25.06675,29.8772 24.5048333,29.8772 L24.5048333,29.8772 L24.5048333,29.8772 L24.5048333,29.8772 Z M7.62075,10.9361333 L6.6335,27.7930667 C6.63533333,27.8332 6.65641667,27.9648 6.76458333,28.0758667 C6.826,28.1374667 6.93691667,28.2121333 7.09,28.2121333 L24.5048333,28.2121333 C24.6276667,28.2121333 24.7413333,28.1654667 24.8275,28.0796 C24.9200833,27.9853333 24.965,27.8714667 24.965,27.7436 L23.9401667,10.9305333 L21.2754167,10.9417333 L21.2103333,10.1801333 C21.1901667,9.95613333 20.65575,4.66413333 15.7974167,4.66413333 C10.99775,4.66413333 10.5614167,9.93746667 10.5430833,10.1624 L10.489,10.9389333 L9.06633333,10.9296 L7.62075,10.9361333 L7.62075,10.9361333 L7.62075,10.9361333 L7.62075,10.9361333 Z M20.49075,25.582 L10.775,25.582 C10.3716667,25.582 9.99033333,25.4233333 9.69975,25.134 C9.40366667,24.8306667 9.24325,24.4405333 9.24325,24.0261333 L9.86475,13.3973333 L21.3395833,13.3376 L21.4679167,14.8281333 L22.017,23.9757333 C22.02525,24.4321333 21.8639167,24.8278667 21.56875,25.1284 C21.291,25.4168 20.9078333,25.582 20.49075,25.582 L20.49075,25.582 L20.49075,25.582 L20.49075,25.582 Z M11.4056667,15.0549333 L10.885,23.9421333 L20.378,23.9178667 L19.8445,15.0110667 L11.4056667,15.0549333 L11.4056667,15.0549333 L11.4056667,15.0549333 L11.4056667,15.0549333 Z M19.0726667,10.9632 L12.72475,10.9632 L12.7898333,10.2902667 C12.8970833,9.1516 13.6716667,7.0012 15.824,7.0012 C17.9488333,7.0012 18.81325,9.13573333 18.97275,10.2632 L19.0726667,10.9632 L19.0726667,10.9632 L19.0726667,10.9632 L19.0726667,10.9632 Z M14.13,9.73586667 L17.5940833,9.73586667 C17.3575833,9.08813333 16.8488333,8.22853333 15.824,8.22853333 C14.7863333,8.22853333 14.328,9.09466667 14.13,9.73586667 L14.13,9.73586667 Z M14.13,9.73586667" id="shopping-line--title-grey" fill="#3B444F" sketch:type="MSShapeGroup"></path>
        <path d="M24.5048333,189.8772 L7.09,189.8772 C6.53816667,189.8772 6.01475,189.657867 5.61508333,189.256533 C5.21816667,188.854267 5,188.318533 5,187.7436 L6.07983333,169.281333 L9.00858333,169.2664 C9.44033333,166.741733 11.2305833,163 15.7974167,163 C20.3954167,163 22.259,166.752933 22.7329167,169.272 L25.4370833,169.261733 L25.6130833,171.323467 L26.5975833,187.6932 C26.5994167,188.3148 26.3803333,188.8524 25.9815833,189.254667 C25.5929167,189.654133 25.06675,189.8772 24.5048333,189.8772 L24.5048333,189.8772 L24.5048333,189.8772 L24.5048333,189.8772 Z M7.62075,170.936133 L6.6335,187.793067 C6.63533333,187.8332 6.65641667,187.9648 6.76458333,188.075867 C6.826,188.137467 6.93691667,188.212133 7.09,188.212133 L24.5048333,188.212133 C24.6276667,188.212133 24.7413333,188.165467 24.8275,188.0796 C24.9200833,187.985333 24.965,187.871467 24.965,187.7436 L23.9401667,170.930533 L21.2754167,170.941733 L21.2103333,170.180133 C21.1901667,169.956133 20.65575,164.664133 15.7974167,164.664133 C10.99775,164.664133 10.5614167,169.937467 10.5430833,170.1624 L10.489,170.938933 L9.06633333,170.9296 L7.62075,170.936133 L7.62075,170.936133 L7.62075,170.936133 L7.62075,170.936133 Z M20.49075,185.582 L10.775,185.582 C10.3716667,185.582 9.99033333,185.423333 9.69975,185.134 C9.40366667,184.830667 9.24325,184.440533 9.24325,184.026133 L9.86475,173.397333 L21.3395833,173.3376 L21.4679167,174.828133 L22.017,183.975733 C22.02525,184.432133 21.8639167,184.827867 21.56875,185.1284 C21.291,185.4168 20.9078333,185.582 20.49075,185.582 L20.49075,185.582 L20.49075,185.582 L20.49075,185.582 Z M11.4056667,175.054933 L10.885,183.942133 L20.378,183.917867 L19.8445,175.011067 L11.4056667,175.054933 L11.4056667,175.054933 L11.4056667,175.054933 L11.4056667,175.054933 Z M19.0726667,170.9632 L12.72475,170.9632 L12.7898333,170.290267 C12.8970833,169.1516 13.6716667,167.0012 15.824,167.0012 C17.9488333,167.0012 18.81325,169.135733 18.97275,170.2632 L19.0726667,170.9632 L19.0726667,170.9632 L19.0726667,170.9632 L19.0726667,170.9632 Z M14.13,169.735867 L17.5940833,169.735867 C17.3575833,169.088133 16.8488333,168.228533 15.824,168.228533 C14.7863333,168.228533 14.328,169.094667 14.13,169.735867 L14.13,169.735867 Z M14.13,169.735867" id="shopping-line--pink" fill="#FF708E" sketch:type="MSShapeGroup"></path>
    </g>
</svg>

<svg width="32" height="232" viewBox="0 0 32 232" xmlns="http://www.w3.org/2000/svg" xmlns:sketch="http://www.bohemiancoding.com/sketch/ns"><title>shopping--line</title><g sketch:type="MSPage" fill="none"><path d="M24.505 149.877h-17.415c-.552 0-1.075-.219-1.475-.621-.397-.402-.615-.938-.615-1.513l1.08-18.462 2.929-.015c.432-2.525 2.222-6.266 6.789-6.266 4.598 0 6.462 3.753 6.936 6.272l2.704-.01.176 2.062.985 16.37c.002.622-.217 1.159-.616 1.561-.389.399-.915.623-1.477.623zm-16.884-18.941l-.987 16.857c.002.04.023.172.131.283.061.062.172.136.325.136h17.415c.123 0 .236-.047.323-.133.093-.094.137-.208.137-.336l-1.025-16.813-2.665.011-.065-.762c-.02-.224-.555-5.516-5.413-5.516-4.8 0-5.236 5.273-5.254 5.498l-.054.777-1.423-.009-1.446.007zm12.87 14.646h-9.716c-.403 0-.785-.159-1.075-.448-.296-.303-.457-.693-.457-1.108l.622-10.629 11.475-.06.128 1.491.549 9.148c.008.456-.153.852-.448 1.153-.278.288-.661.454-1.078.454zm-9.085-10.527l-.521 8.887 9.493-.024-.534-8.907-8.439.044zm7.667-4.092h-6.348l.065-.673c.107-1.139.882-3.289 3.034-3.289 2.125 0 2.989 2.135 3.149 3.262l.1.7zm-4.943-1.227h3.464c-.236-.648-.745-1.507-1.77-1.507-1.038 0-1.496.866-1.694 1.507zm0 0" fill="#206FAC" sketch:type="MSShapeGroup"/><path d="M24.505 109.877h-17.415c-.552 0-1.075-.219-1.475-.621-.397-.402-.615-.938-.615-1.513l1.08-18.462 2.929-.015c.432-2.525 2.222-6.266 6.789-6.266 4.598 0 6.462 3.753 6.936 6.272l2.704-.01.176 2.062.985 16.37c.002.622-.217 1.159-.616 1.561-.389.399-.915.623-1.477.623zm-16.884-18.941l-.987 16.857c.002.04.023.172.131.283.061.062.172.136.325.136h17.415c.123 0 .236-.047.323-.133.093-.094.137-.208.137-.336l-1.025-16.813-2.665.011-.065-.762c-.02-.224-.555-5.516-5.413-5.516-4.8 0-5.236 5.273-5.254 5.498l-.054.777-1.423-.009-1.446.007zm12.87 14.646h-9.716c-.403 0-.785-.159-1.075-.448-.296-.303-.457-.693-.457-1.108l.622-10.629 11.475-.06.128 1.491.549 9.148c.008.456-.153.852-.448 1.153-.278.288-.661.454-1.078.454zm-9.085-10.527l-.521 8.887 9.493-.024-.534-8.907-8.439.044zm7.667-4.092h-6.348l.065-.673c.107-1.139.882-3.289 3.034-3.289 2.125 0 2.989 2.135 3.149 3.262l.1.7zm-4.943-1.227h3.464c-.236-.648-.745-1.507-1.77-1.507-1.038 0-1.496.866-1.694 1.507zm0 0" fill="#fff" sketch:type="MSShapeGroup"/><path d="M24.505 69.877h-17.415c-.552 0-1.075-.219-1.475-.621-.397-.402-.615-.938-.615-1.513l1.08-18.462 2.929-.015c.432-2.525 2.222-6.266 6.789-6.266 4.598 0 6.462 3.753 6.936 6.272l2.704-.01.176 2.062.985 16.37c.002.622-.217 1.159-.616 1.561-.389.399-.915.623-1.477.623zm-16.884-18.941l-.987 16.857c.002.04.023.172.131.283.061.062.172.136.325.136h17.415c.123 0 .236-.047.323-.133.093-.094.137-.208.137-.336l-1.025-16.813-2.665.011-.065-.762c-.02-.224-.555-5.516-5.413-5.516-4.8 0-5.236 5.273-5.254 5.498l-.054.777-1.423-.009-1.446.007zm12.87 14.646h-9.716c-.403 0-.785-.159-1.075-.448-.296-.303-.457-.693-.457-1.108l.622-10.629 11.475-.06.128 1.491.549 9.148c.008.456-.153.852-.448 1.153-.278.288-.661.454-1.078.454zm-9.085-10.527l-.521 8.887 9.493-.024-.534-8.907-8.439.044zm7.667-4.092h-6.348l.065-.673c.107-1.139.882-3.289 3.034-3.289 2.125 0 2.989 2.135 3.149 3.262l.1.7zm-4.943-1.227h3.464c-.236-.648-.745-1.507-1.77-1.507-1.038 0-1.496.866-1.694 1.507zm0 0" fill="#67747C" sketch:type="MSShapeGroup"/><path d="M24.505 29.877h-17.415c-.552 0-1.075-.219-1.475-.621-.397-.402-.615-.938-.615-1.513l1.08-18.462 2.929-.015c.432-2.525 2.222-6.266 6.789-6.266 4.598 0 6.462 3.753 6.936 6.272l2.704-.01.176 2.062.985 16.37c.002.622-.217 1.159-.616 1.561-.389.399-.915.623-1.477.623zm-16.884-18.941l-.987 16.857c.002.04.023.172.131.283.061.062.172.136.325.136h17.415c.123 0 .236-.047.323-.133.093-.094.137-.208.137-.336l-1.025-16.813-2.665.011-.065-.762c-.02-.224-.555-5.516-5.413-5.516-4.8 0-5.236 5.273-5.254 5.498l-.054.777-1.423-.009-1.446.007zm12.87 14.646h-9.716c-.403 0-.785-.159-1.075-.448-.296-.303-.457-.693-.457-1.108l.622-10.629 11.475-.06.128 1.491.549 9.148c.008.456-.153.852-.448 1.153-.278.288-.661.454-1.078.454zm-9.085-10.527l-.521 8.887 9.493-.024-.534-8.907-8.439.044zm7.667-4.092h-6.348l.065-.673c.107-1.139.882-3.289 3.034-3.289 2.125 0 2.989 2.135 3.149 3.262l.1.7zm-4.943-1.227h3.464c-.236-.648-.745-1.507-1.77-1.507-1.038 0-1.496.866-1.694 1.507zm0 0" fill="#3B444F" sketch:type="MSShapeGroup"/><path d="M24.505 189.877h-17.415c-.552 0-1.075-.219-1.475-.621-.397-.402-.615-.938-.615-1.513l1.08-18.462 2.929-.015c.432-2.525 2.222-6.266 6.789-6.266 4.598 0 6.462 3.753 6.936 6.272l2.704-.01.176 2.062.985 16.37c.002.622-.217 1.159-.616 1.561-.389.399-.915.623-1.477.623zm-16.884-18.941l-.987 16.857c.002.04.023.172.131.283.061.062.172.136.325.136h17.415c.123 0 .236-.047.323-.133.093-.094.137-.208.137-.336l-1.025-16.813-2.665.011-.065-.762c-.02-.224-.555-5.516-5.413-5.516-4.8 0-5.236 5.273-5.254 5.498l-.054.777-1.423-.009-1.446.007zm12.87 14.646h-9.716c-.403 0-.785-.159-1.075-.448-.296-.303-.457-.693-.457-1.108l.622-10.629 11.475-.06.128 1.491.549 9.148c.008.456-.153.852-.448 1.153-.278.288-.661.454-1.078.454zm-9.085-10.527l-.521 8.887 9.493-.024-.534-8.907-8.439.044zm7.667-4.092h-6.348l.065-.673c.107-1.139.882-3.289 3.034-3.289 2.125 0 2.989 2.135 3.149 3.262l.1.7zm-4.943-1.227h3.464c-.236-.648-.745-1.507-1.77-1.507-1.038 0-1.496.866-1.694 1.507zm0 0" fill="#FF708E" sketch:type="MSShapeGroup"/></g></svg>
